!!!COM: Music21
!!!OTL: Rumba de Vergara
!!!OMV: pezas_rumbas_rumba-de-vergara_rumba-de-vergara-partitura.musicxml
**kern
*I"Bagpipes
*I'Bag
*clefG^2
*k[]
*M2/4
=1
!LO:TX:a:t=Andante
*MM96
!LO:TX:a:t=[quarter]=96
4r
8ccL
8eeJ
=||
16ggLL
16aa
16gg
16cccJJ
8aaL
8cccJ
=
16bbLL
16aaJ
[8ggJ
8ggL]
16ddL
16eeJJ
=
16ffLL
16gg
16ff
16ddJJ
8ggL
8ffJ
=
16eeLL
16ddJ
[8ccJ
8ccL]
16ccL
16eeJJ
=
16ggLL
16aa
16gg
16cccJJ
8aaL
8cccJ
=
16bbLL
16aaJ
[8ggJ
8ggL]
16ddL
16eeJJ
!!linebreak:original
=
16ffLL
16gg
16ff
16ddJJ
8ggL
8ffJ
=
4.ee
16ccLL
16eeJJ
=||
16ggLL
16aa
16gg
16cccJJ
8aaL
8cccJ
=
16bbLL
16aaJ
[8ggJ
8ggL]
16ddL
16eeJJ
=
16ffLL
16gg
16ff
16ddJJ
8ggL
8ffJ
=
16eeLL
16ddJ
[8ccJ
8ccL]
16ccL
16eeJJ
=
16ggLL
16aa
16gg
16cccJJ
8aaL
8cccJ
!!linebreak:original
=
16bbLL
16aaJ
[8ggJ
8ggL]
16ddL
16eeJJ
!!linebreak:original
=
16ffLL
16gg
16ff
16ddJJ
8ggL
8ffJ
=
8.eeL
16cccJk
8cccL
8dddJ
=||
[2bb
=
8.bbL]
16aaJk
8aaL
8bbJ
=
[2gg
=
8.ggL]
16cccJk
8cccL
8dddJ
=
16bbLL
16ccc
16bb
16ggJJ
8aaL
8bbJ
=
16ggLL
16aa
16gg
16eeJJ
8ffL
8ggJ
=
[2ee
!!linebreak:original
=
8.eeL]
16aaJk
8aaL
8bbJ
=
16ggLL
16aa
16gg
16eeJJ
8ffL
8ggJ
=
16eeLL
16ff
16ee
16ccJJ
8ddL
8eeJ
=
[2cc
=
8.ccL]
16cccJk
8cccL
8dddJ
=||
[2bb
=
8.bbL]
16aaJk
8aaL
8bbJ
=
[2gg
=
8.ggL]
16cccJk
8cccL
8dddJ
=
16bbLL
16ccc
16bb
16ggJJ
8aaL
8bbJ
!!linebreak:original
=
16ggLL
16aa
16gg
16eeJJ
8ffL
8ggJ
=
[2ee
!!linebreak:original
=
8.eeL]
16aaJk
8aaL
8bbJ
=
16ggLL
16aa
16gg
16eeJJ
8ffL
8ggJ
=
16eeLL
16ff
16ee
16ccJJ
8ddL
8eeJ
=||
[2cc
=
4cc]
8ccL
8eeJ
=||
[2cc
=
8cc]
==
*-
